X:1
T:The Whole Wide World
T:John Henry Maunder, 1894
T:The Whole Wide World
T:Public Domain
T:Public Domain
T:Public Domain
C:John Henry Maunder, 1894
Z:Public Domain
%%score ( 1 2 ) ( 3 4 )
L:1/8
M:4/4
K:D
V:1 treble 
V:2 treble 
V:3 bass 
V:4 bass 
V:1
 [FA]2 | [FA]2 [FA]2 [GB]3 [GA] | [FA]2 [DF]4 [DF]2 | [DF]2 (EF) [DG]2 [CG]2 | [DF]6 [FA]2 | %5
w: 1.~The|whole wide world for|Je- sus! This|shall our * watch- word|Up- on|
w: 2.~The|whole wide world for|Je- sus! In-|spires us * with the|That all|
w: 3.~The|whole wide world for|Je- sus! The|march- ing * or- der|Go ye|
 [FA]2 [FA]2 [GB]3 [GA] | [FA]2 [DF]6 | [CE]2 [CA][Cc] [Dc]2 [DB]2 | [CA]6 [CA]2 | %9
w: the high- est mount-|ain, Down|by the wid- est sea;|The whole|
w: God’s wan- dering child-|ren Have|by His love been sought.|The whole|
w: and preach the Gos-|pel Wher-|ev- er man is found.|The whole|
 [DA]2 [FA]2 [Gd]3 [GB] | [FA]2 [DF]4 [DA]2 | [DB]2 [DA]2 [DF]2 D2 | [CE]6 [CA]2 | %13
w: wide world for Je-|sus! To Him|shall all men bow,|ci- ty|
w: wide world for Je-|sus! O faint|not by the way!|cross shall|
w: wide world for Je-|sus! Ride forth,|O con- quering king,|all the|
 [DA]2 [DF]2 [DG]2 [DA]2 | [DB]4 [Ec]2 [Ec]2 | [Dd]3 [DG] [DF]2 [CE]2 | D6 ||"^Refrain" D2 | %18
w: or in prair- ie,|The world for|Je- sus now! *|||
w: sure- ly con- quer|In this our|glor- ious day. *|||
w: might- y na- tions|The world to|glor- y bring! *|||
 D4 [DF]4 | [FA]6 D2 | [DG]4 [GB]4 | [Fd]6 [Fd]2 | [Gc]3 [GB] [CA]2 [C^G]2 | [DB]2 [DA]2 [DF]2 D2 | %24
w: ||||||
w: ||||||
w: ||||||
 [CE]4 [DB]4 | [CA]6 D2 | D3 [DE] [DF]2 [DG]2 | [DA]2 [DF]4 D2 | [DG]3 [DA] [GB]2 [Gc]2 | %29
w: |||||
w: |||||
w: |||||
 [Fd]6 [Dd]2 | [De]3 [Dd] [Dc]2 [DB]2 | [Fd]2 [DF]2 [DG]2 A2 | [^GB]4 [=Ge]4 | [Fd]6 |] %34
w: |||||
w: |||||
w: |||||
V:2
 x2 | x8 | x8 | x2 D2 x4 | x8 | x8 | x8 | x8 | x8 | x8 | x8 | x6 D2 | x8 | x8 | x8 | x8 | D6 || %17
w: |||be;||||||||In||||||
w: |||thought||||||||The||||||
w: |||sound;||||||||Through||||||
 D2 | D4 x4 | x6 D2 | x8 | x8 | x8 | x6 D2 | x8 | x6 D2 | D3 x5 | x6 D2 | x8 | x8 | x8 | x6 A2 | %32
w: |||||||||||||||
w: |||||||||||||||
w: |||||||||||||||
 x8 | x6 |] %34
w: ||
w: ||
w: ||
V:3
 [D,A,]2 | [D,A,]2 [D,D]2 [D,B,]3 [D,C] | [D,D]2 [D,A,]4 [D,A,]2 | %3
w: ~|~ ~ ~ ~|~ ~ ~|
 [A,,A,]2 (G,F,) [A,,E,]2 [A,,A,]2 | [D,A,]6 [D,A,]2 | [D,A,]2 [D,D]2 [D,B,]3 [D,C] | %6
w: ~ ~ * ~ ~|~ ~|~ ~ ~ ~|
 [D,D]2 [D,A,]6 | [E,A,]2 [E,A,][E,A,] [E,F,]2 [E,^G,]2 | [A,,A,]6 [A,,G,]2 | %9
w: ~ ~|~ ~ ~ ~ ~|~ ~|
 [D,F,]2 [D,A,]2 [D,B,]3 [D,C] | [D,D]2 [D,A,]4 [F,A,]2 | G,2 [F,A,]2 [B,,A,]2 [E,^G,]2 | %12
w: ~ ~ ~ ~|~ ~ ~|~ ~ ~ ~|
 [A,,A,]6 [G,A,]2 | [F,A,]2 [D,A,]2 [E,A,]2 [F,=C]2 | [G,B,]4 [F,^A,]2 [F,A,]2 | %15
w: ~ ~|~ ~ ~ ~|~ ~ ~|
 [B,,B,]3 [E,B,] A,2 [A,,G,]2 | [D,F,]6 || [D,F,]2 | [D,F,]4 [D,A,]4 | [D,=C]6 [D,C]2 | %20
w: ~ ~ ~ The|wide|world,|The whole|wide world,|
 [D,B,]4 [D,B,]4 | [D,A,]6 [D,A,]2 | [E,A,]3 [E,A,] [A,,G,]2 [A,,G,]2 | %23
w: Pro- claim|the Gos-|pel tid- ings through|
 [D,F,]2 [D,F,]2 [D,A,]2 [F,A,]2 | [E,A,]4 [E,^G,]4 | [A,,A,]6 [D,F,]2 | %26
w: The whole wide world;|Lift up|the cross|
 [D,F,]3 [D,G,] [D,A,]2 [D,B,]2 | [D,F,]2 [D,A,]4 [D,=C]2 | [D,B,]3 [D,B,] [D,B,]2 [D,_B,]2 | %29
w: of Je- sus, His|ban- ner be|un- furled, Till ev-|
 [D,A,]6 [F,A,]2 | [E,^G,]3 [E,G,] [E,G,]2 [E,G,]2 | [A,D]2 [A,D]2 [B,D]2 [F,D]2 | %32
w: ery tongue|con- fess Him through|The whole wide world!|
 [E,D]4 [A,,A,C]4 | [D,D]6 |] %34
w: ||
V:4
 x2 | x8 | x8 | x2 A,,2 x4 | x8 | x8 | x8 | x8 | x8 | x8 | x8 | ^G,2 x6 | x8 | x8 | x8 | %15
w: |||~||||||||~||||
 x4 A,2 x2 | x6 || x2 | x8 | x8 | x8 | x8 | x8 | x8 | x8 | x8 | x8 | x8 | x8 | x8 | x8 | x8 | x8 | %33
w: whole||||||||||||||||||
 x6 |] %34
w: |

